!!!COM:	Bach, Johann Sebastian
!!!CDT:	1685/02/21/-1750/07/28/
!!!OTL@@DE:	Verleih uns Frieden gn&auml;diglich
!!!SCT:	BWV 42/7
!!!PC#:	259
!!!AGN:	chorale
**kern	**kern	**kern	**kern
*ICvox	*ICvox	*ICvox	*ICvox
*Ibass	*Itenor	*Ialto	*Isoprn
*I"Bass	*I"Tenor	*I"Alto	*I"Soprano
*clefF4	*clefGv2	*clefG2	*clefG2
*k[f#c#g#]	*k[f#c#g#]	*k[f#c#g#]	*k[f#c#g#]
*f#:	*f#:	*f#:	*f#:
*M4/4	*M4/4	*M4/4	*M4/4
*met(c)	*met(c)	*met(c)	*met(c)
*MM100	*MM100	*MM100	*MM100
8F#L	4A	4c#	4f#
8EJ	.	.	.
=1	=1	=1	=1
4D	4A	4d	4f#
8C#L	4A	4d	4f#
8BBJ	.	.	.
4C#	8G#L	[2c#	4e#
.	8BJ	.	.
8D#L	8AL	.	8f#L
8E#J	8G#J	.	8g#J
=2	=2	=2	=2
8F#L	4F#	8c#L]	4a
8BBJ	.	8f#J	.
4C#	8c#L	8f#L	4g#
.	8BJ	8e#J	.
4F#;	4A;	4c#;	4f#;
4F#	4c#	4f#	4a
=3	=3	=3	=3
4G#	4B	8enXL	4b
.	.	8f#J	.
8F#L	4e	4g#	4b
8EJ	.	.	.
8AL	4.e	[2a	8cc#L
8G#J	.	.	8bJ
8F#L	.	.	4a
8EJ	16dLL	.	.
.	16c#JJ	.	.
=4	=4	=4	=4
4D	4B	8aL]	2b
.	.	16g#L	.
.	.	16f#JJ	.
4E	4e	4g#	.
4AA;	4e;	4a;	4cc#;
8AL	4e	4a	4cc#
8G#J	.	.	.
=5	=5	=5	=5
4F#	8eL	4a	4cc#
.	8dJ	.	.
8G#L	4d	8e#L	4b
8F#J	.	8f#J	.
4E#	4c#	4g#	8cc#L
.	.	.	8bJ
8F#L	4c#	4f#	4a
8EJ	.	.	.
=6	=6	=6	=6
4D#	4B	4f#	8bL
.	.	.	8aJ
4E	4B	4enX	4g#
4BB;	4B;	4d#;	4f#;
4B	4B	8d#L	8f#L
.	.	8e#J	8g#J
=7	=7	=7	=7
8F#L	4c#	4f#	4a
8EJ	.	.	.
8DL	4d	4f#	4a
8C#J	.	.	.
4BB	4d	8g#L	4b
.	.	8f#J	.
4C#	8c#L	4e#	8aL
.	8BJ	.	8g#J
=8	=8	=8	=8
4D	8AL	8f#L	2f#
.	8A#J	8enXJ	.
8C#L	4B	4d	.
8BBJ	.	.	.
4F#;	4A;	4c#;	4f#;
4G#	4B	4e	4b
=9	=9	=9	=9
4A	4A	4e	4cc#
8G#L	8BL	4e	4b
8AJ	8c#J	.	.
4B	4d	8dL	8f#L
.	.	8eJ	8g#J
8AL	4c#	4f#	4a
8BJ	.	.	.
=10	=10	=10	=10
4c#	4.c#	4f#	8g#L
.	.	.	8f#J
4C#	.	4e#	4g#
.	8B	.	.
4F#;	4A;	4c#;	4f#;
8F#L	4A	4c#	4f#
8G#J	.	.	.
=11	=11	=11	=11
8AL	4A	4c#	4f#
8BJ	.	.	.
4c#	4G#	4c#	4enX
8c#L	4F#	4d	4a
8dJ	.	.	.
8c#L	4G#	4d	4b
8BJ	.	.	.
=12	=12	=12	=12
8AL	8AL	4c#	8cc#L
8E#J	8G#J	.	8bJ
8F#L	4A	4c#	4a
8C#J	.	.	.
8DL	4A	4f#	4b
8BBJ	.	.	.
4E	4G#	4e	4b
=13	=13	=13	=13
2AA;	2A;	2e;	2cc#;
2BB	2G#	2b	2dd
=14	=14	=14	=14
4C#	4A	4e	4cc#
4D	4A	4f#	8bL
.	.	.	16cc#L
.	.	.	16ddJJ
4E	8AL	4e	4.b
.	8F#J	.	.
4E	8G#L	4e	.
.	8dJ	.	8a
=15	=15	=15	=15
2.AA;	2.c#;	2.e;	2.a;
4E#	4c#	4g#	4cc#
=16	=16	=16	=16
4.F#	4.f#	8aL	8cc#L
.	.	8g#J	8bJ
.	.	4f#	4a
8F#	8e	.	.
8G#L	8dL	4f#	8bL
8A#J	8c#J	.	8cc#J
4B	8BL	8f#L	4dd
.	8G#J	8e#J	.
=17	=17	=17	=17
2F#;	2AnX;	2f#;	2cc#;
4EnX	4B	8g#L	4eenX
.	.	8bJ	.
4E	4e	8bL	4cc#
.	.	8aJ	.
=18	=18	=18	=18
4E	4e	8aL	4dd
.	.	8g#J	.
4E	8eL	8aL	8cc#L
.	8dJ	8g#J	8bJ
4E	8c#L	8aL	4cc#
.	8BJ	8bJ	.
4E	8AL	[4cc#	4cc#
.	8G#J	.	.
=19	=19	=19	=19
4E	8F#L	8cc#L]	4dd
.	8G#J	8bJ	.
4F#	4A	4a	8cc#L
.	.	.	8ddJ
4G#	4B	4e	8eeL
.	.	.	8ddJ
4A	4A	4e	4cc#
=20	=20	=20	=20
4D	4A	4f#	2b
4E	4G#	8eL	.
.	.	8dJ	.
2AA;	2E;	2c#;	2a;
=21	=21	=21	=21
8AAL	4A	4e	4cc#
8BBJ	.	.	.
8C#L	4A	4e	4cc#
8AAJ	.	.	.
8DL	4A	4f#	4a
8C#J	.	.	.
8DL	4d	4f#	4b
8EJ	.	.	.
=22	=22	=22	=22
4F#	4c#	4f#	4a
8G#L	4B	4e	4g#
8AJ	.	.	.
2B;	2B;	4e	2f#;
.	.	4d;	.
=23	=23	=23	=23
4.C#	4G#	4c#	4e
.	8AL	4d	8f#L
8BB	8BJ	.	8g#J
4AA	4c#	4e	4a
8BBL	4B	4d	4f#
8C#J	.	.	.
=24	=24	=24	=24
2.D;	2.A;	2.d;	2.f#;
8AL	8AL	4c#	4e
8G#J	8G#J	.	.
=25	=25	=25	=25
8AL	4F#	2.c#	4f#
8G#	.	.	.
8F#	4B	.	4g#
8E#J	.	.	.
4F#	4A	.	4a
8BBL	4B	8dL	4g#
8C#J	.	8enXJ	.
=26	=26	=26	=26
8DL	4A	4f#	2.f#
8C#	.	.	.
8BB	8G#L	8g#L	.
8AAJ	8F#J	8aJ	.
4BB	8G#L	4d	.
.	8AJ	.	.
4C#	4B	4c#	4e#
=27	=27	=27	=27
2.F#;	2.A#;	2.c#;	2.f#;
==	==	==	==
*-	*-	*-	*-
!!!hum2abc: -Q ''
!!!title: @{PC#}. @{OTL@@DE}
!!!YOR1: 371 vierstimmige Choralges&auml;nge von Johann Sebastian Bach, 
!!!YOR2: 4th ed. by Alfred D&ouml;rffel (Leipzig: Breitkopf und H&auml;rtel, 
!!!YOR2: c.1875). 178 pp. Plate "V.A.10".  reprint: J.S. Bach, 371 Four-Part 
!!!YOR4: Chorales (New York: Associated Music Publishers, Inc., c.1940).
!!!SMS: B&H, 4th ed, Alfred D&ouml;rffel, c.1875, plate V.A.10
!!!EED:  Craig Stuart Sapp
!!!EEV:  2009/05/22
